projects/ccf-eui/src/assets/icons/organ-icons/organ-icon-eye.svg

<svg width="64" height="64" viewBox="0 0 64 64" fill="currentColor" xmlns="http://www.w3.org/2000/svg">
<path d="M20.3307 38.4C21.5089 38.4 22.4641 35.5346 22.4641 32C22.4641 28.4654 21.5089 25.6 20.3307 25.6C19.1525 25.6 18.1974 28.4654 18.1974 32C18.1974 35.5346 19.1525 38.4 20.3307 38.4Z" stroke="currentColor" stroke-miterlimit="10"/>
<path d="M49.7494 30.848C48.8926 30.7804 48.0583 30.541 47.296 30.144C46.9109 26.4048 45.3693 22.8789 42.8859 20.0571C40.4024 17.2354 37.1008 15.2585 33.4409 14.4016C29.7809 13.5447 25.9448 13.8506 22.4669 15.2766C18.9889 16.7026 16.0423 19.1777 14.0374 22.3573C13.572 23.04 13.0587 23.6887 12.5014 24.2987C11.4548 25.2943 10.6162 26.4876 10.0339 27.8095C9.45169 29.1315 9.13744 30.5558 9.10938 32C9.13098 33.4536 9.44424 34.888 10.0306 36.2182C10.6169 37.5484 11.4644 38.7474 12.5227 39.744C13.0857 40.3622 13.606 41.0179 14.08 41.7067C15.9353 44.6169 18.5852 46.9349 21.7163 48.3866C24.8474 49.8382 28.3287 50.3628 31.7486 49.8983C35.1685 49.4338 38.3838 47.9996 41.0142 45.7654C43.6447 43.5311 45.5803 40.5903 46.592 37.2907C47.6911 37.6844 48.8402 37.9214 50.0054 37.9947C51.6953 37.9301 53.3558 37.5313 54.8907 36.8213V29.0987C54.2048 29.7353 53.3925 30.2201 52.5066 30.5215C51.6207 30.823 50.6812 30.9342 49.7494 30.848ZM29.312 48.064H28.7574C27.4543 47.8064 26.2538 47.1765 25.3014 46.2507C24.1494 44.672 23.8294 40.1707 21.8454 40.2773C20.3947 40.2773 21.376 41.4293 20.0747 41.4933C17.024 41.6213 17.152 35.0933 15.232 35.0933C14.0587 35.0933 14.272 37.2267 14.72 39.2107L14.0374 38.4C13.1407 37.588 12.419 36.6016 11.9164 35.5012C11.4139 34.4008 11.1411 33.2094 11.1147 32C11.1396 30.7923 11.4097 29.6023 11.9084 28.5022C12.4071 27.402 13.1242 26.4146 14.016 25.6L14.8054 24.6613C14.3574 26.624 14.144 28.736 15.3174 28.7787C17.2374 28.7787 17.088 22.3787 20.16 22.3787C21.44 22.3787 20.48 23.5093 21.9094 23.5733C23.8934 23.68 24.2134 19.3067 25.3654 17.6C26.2292 16.743 27.3154 16.1445 28.5014 15.872H29.312C33.5725 15.872 37.6584 17.5644 40.671 20.577C43.6836 23.5896 45.376 27.6756 45.376 31.936C45.376 36.1964 43.6836 40.2824 40.671 43.295C37.6584 46.3075 33.5725 48 29.312 48V48.064Z" />
</svg>

<svg xmlns="http://www.w3.org/2000/svg" width="64" height="64" fill="currentColor" viewBox="0 0 64 64"><path stroke="currentColor" stroke-miterlimit="10" d="M20.33 38.4c1.179 0 2.134-2.865 2.134-6.4s-.955-6.4-2.133-6.4-2.134 2.865-2.134 6.4.956 6.4 2.134 6.4Z"/><path d="M49.75 30.848a6.4 6.4 0 0 1-2.454-.704 18.07 18.07 0 0 0-33.259-7.787 17.5 17.5 0 0 1-1.536 1.942A10.92 10.92 0 0 0 9.11 32a10.86 10.86 0 0 0 3.414 7.744 18.4 18.4 0 0 1 1.557 1.963 18.07 18.07 0 0 0 32.512-4.416c1.1.393 2.248.63 3.413.704 1.69-.065 3.35-.464 4.886-1.174V29.1a6.66 6.66 0 0 1-5.142 1.749M29.311 48.064h-.555a6.87 6.87 0 0 1-3.456-1.813c-1.152-1.579-1.472-6.08-3.456-5.974-1.45 0-.469 1.152-1.77 1.216-3.051.128-2.923-6.4-4.843-6.4-1.173 0-.96 2.134-.512 4.118l-.683-.811a8.9 8.9 0 0 1-2.922-6.4 8.92 8.92 0 0 1 2.901-6.4l.79-.939c-.449 1.963-.662 4.075.511 4.118 1.92 0 1.771-6.4 4.843-6.4 1.28 0 .32 1.13 1.75 1.194 1.983.107 2.303-4.266 3.455-5.973a6.53 6.53 0 0 1 3.136-1.728h.811a16.064 16.064 0 1 1 0 32.128z"/></svg>
